X:40
T: Imelda Roland's
S: "Collection of the Dance Music of Ireland" (P. McNulty)
Z: B.Black
L: 1/8
M: 4/4
R: reel
K: Edor
B2 GA BGdB |AD (3FED AD (3FED |GEEF GFGA |BABd egfe |
d2 ce dBAG |(3FED AD BDAD |G2 EF GFGA |(3Bcd A=c BE E2 :|
e2 ed efga |be (3eee bege |d2 dc defg |adfd adfd |
e2 fd edBc |dcdB AFDF |G2 EF GFGA |(3Bcd Ad BE E2 :|
